X:1423
T:Pollonesse 1832-53
O:Södermanland
R:Slängpolska
B:Notbok 1832 från Sörmlands museum
N:[[http://www.sormlandsmusikarkiv.se/noter/1832/1832.html]]
Z:Jonas Brunskog
M: 3/4
L: 1/16
K:D
|:d2f2 f2a2 a2d'2 | d'2a2 a2ga f2d2 | c2e2 e2g2 g2b2 | c'2a2 fdfg ecec |
Adfd ecec d2ef | agfg fdfg ecec | Adfd ecec d2ef | agfg fdfg ecec :|
|:edef edef edef | g4 bgeg afdf | gece d4 D4:|
(:musicend:)
(:music:)
